X:1
T:Credit Card Song
M:4/4
L:1/4
K:D
 D| F/2F/2 F/2F/2 F/2F/2 E/2D/2| C E E3/2 A/2| c c c C/2C/2| D F F2|\
 A A/2d/2-d/2 d/2 d| d B B2| A A G C| A,/2 C3/2 D2| F/2 F3/2 F D| G/2 G3/2 B2|\
 A A G C| A,/2 C3/2
M:4/4
| D4-| D3 A| B4| c/2 A3/2- A2| d2 d/2 c3/2| B3 B| B4| c/2 A3/2- A2|\
 d4-| d4|
